X: 18029
T: Hull's
R: reel
M: 4/4
K: Emajor
|:BEEc B2 Bc|BEGB cBce|BEEc B2 GB|cBce fgec|
BEEc B2 Bc|BEGB cBce|fgfe cefg|1 eccB ceec:|2 eccB ceef||
|:gB (3BBB g2fe|fc (3ccc f2fg|fc (3ccc c2 Bc|eB (3BBB Bcef|
gB (3BBB g2fe|fc (3ccc f3e|fgfe cefg|1 eccB ceef:|2 eccB ceec||

